X:1
T:Firm on the Rock I Stand
T:Hubert Platt Main
T:Firm on the Rock I Stand
T:Public Domain
T:Public Domain
C:Hubert Platt Main
Z:Public Domain
%%score ( 1 2 ) ( 3 4 )
L:1/8
M:6/8
K:G
V:1 treble 
V:2 treble 
V:3 bass 
V:4 bass 
V:1
 [GB]3 [Gc]2 [GB] | [^Ae]2 [Bd] [Gd]3 | G3 [FA]2 G | [GB]3- [GB]2 z | [DB]3 [Ec]2 [=FB] | %5
w: 1.~Firm on the|Rock I stand,|Je- sus, my|by *|Thy might- y|
w: 2.~Thou art my|con- stant Guest,|Je- sus, my|in *|Thy fold I|
w: 3.~Soon o’er the|swell- ing tide,|Je- sus, my|on *|the o- ther|
 [Fe]2 [Fd] (G2 E) | (z2 G/A/) [^CG]2 [CE] | D3- D2 z | [CA]3 [CG]2 [CA] | [B,B]2 [B,A] [B,G]3 | %10
w: hand, Je- sus, *|* * Lord. Filled||love di- vine,|O what a|
w: rest, Je- sus, *|* * Lord. What||cross I bear?|Bright is the|
w: side, Je- sus, *|* * Lord, I||wake with Thee,|Thine through e-|
 [Ec]3 [DB]2 [DA] | [Dd]2 [Dc] [DB]3 | [Ge]3 [Ec]2 [_EA] | [Dd]2 [DB] [B,G]3 | %14
w: joy is mine!|I am a|child of Thine,|Je- sus, my|
w: pearl I wear,|Life in Thy|life I share,|Je- sus, my|
w: ter- ni- ty,|Thou that hast|died for me,|Je- sus, my|
 (z2 B/c/) [DB]2 [CA] | [B,G]3- [B,G]2 z ||"^Refrain" [DA]3 [DG]2 [DA] | [DB]3- [DB]2 z | %18
w: * * Lord. *||||
w: * * Lord. Je-||my Lord, Je-|sus, *|
w: * * Lord. *||||
 [Fc]3 [DB]2 [DA] | [Dd]3- [Dd]2 z | [Ge]3 [Ec]2 [_EA] | [Dd]2 [DB] [B,G]3 | (z2 B/A/) [DG]2 [CF] | %23
w: |||||
w: my Lord, I|am *|a child of|Thine, Je- sus,|* * my Lord.|
w: |||||
 [B,G]3- [B,G]2 z |] %24
w: |
w: |
w: |
V:2
 x6 | x6 | G3 G x2 | x6 | x6 | x3 d3 | [^CE]3 x3 | D3- D2 x | x6 | x6 | x6 | x6 | x6 | x6 | %14
w: ||Lord, Held|||my|with|Thy *|||||||
w: ||Lord; Safe|||my|though|a *|||||||
w: ||Lord, Home|||my|shall|a- *|||||||
 [FA]3 x3 | x6 || x6 | x6 | x6 | x6 | x6 | x6 | [EA]3 x3 | x6 |] %24
w: ||||||||||
w: sus,||||||||||
w: ||||||||||
V:3
 [G,D]3 [G,E]2 [G,D] | [G,^C]2 [G,D] [G,B,]3 | [D,B,]3 [D,C]2 [D,B,] | [G,D]3- [G,D]2 z | %4
 [E,^G,]3 [E,G,]2 [D,G,] | [C,A,]2 [C,A,] (B,,2 _B,,) | [A,,A,]3 [A,,E,]2 [A,,G,] | %7
 [D,F,]3- [D,F,]2 z | [D,F,]3 [D,E,]2 [D,F,] | [^D,F,]2 [D,F,] [E,G,]3 | [A,,A,]3 [D,F,]2 [C,F,] | %11
 [B,,G,]2 [D,F,] G,3 | [C,G,]3 [C,G,]2 [C,F,] | [B,,G,]2 [G,,G,] [E,G,]3 | [C,G,]3 [D,G,]2 [D,F,] | %15
 [G,,G,]3- [G,,G,]2 z || [D,F,]3 [B,,G,]2 [A,,F,] | [G,,G,]3- [G,,G,]2 z | [D,A,]3 [D,F,]2 [C,F,] | %19
 [B,,G,]3- [B,,G,]2 z | [C,G,]3 [C,G,]2 [C,F,] | [B,,G,]2 [G,,G,] [E,G,]3 | [C,C]3 [D,B,]2 [D,A,] | %23
 [G,,G,]3- [G,,G,]2 z |] %24
V:4
 x6 | x6 | x6 | x6 | x6 | x3 G,3 | x6 | x6 | x6 | x6 | x6 | x3 G,3 | x6 | x6 | x6 | x6 || x6 | x6 | %18
 x6 | x6 | x6 | x6 | x6 | x6 |] %24

